X:758
T:Leaving Vaternish 
C:Joe Buchanan's Scottish Tome - Page 525.2
I:525 2
Z:Carl Allison
R:Slow Air
L:1/4
M:3/4
K:C
G | "C"C2 E | "C"G2 E | "G7"D2 D | "C"C2 E | "C"G2 G | "Am"c2 c | "F"F3 | "G7"G2 A |
"C"c2 A | "G"G2 G | "Am"C2 D | "C"E2 F | "C"G2 G | "Bb"F2 D | "C"D C2 | "C"C2 A |
"C"c2 c | "F"A2 G | "C"C2 D | "Am"E3 | "C"F2 G | "Bb"_B2 G | "G"A G2 | "G7"G3 |
"C"c2 c | "Bb"_B A | "C"G C2 | "F"F3 | "C"E G2 | "Bb"F2 D | "C"D C2 | "C"C2 :|

